X:15
T:GB/6b/15 Admiral Benbow
%%VWML:GB-6b-15-0
F:http://www.vwml.org/record/GB/6b/15
C:Transcribed by Simon Furey and Lewis Jones
W:Words not noted--GSK B(utterworth).
L:1/4
Q:1/4=120
M:4/4
I:linebreak $
K:G
"^Mixolydian influence" D/E/ =F/D/ | G B A A | G2 A/B/ c | d2 c B | A c B A | G B A G |$
F D G/F/ E | D2 B B/c/ | d B/A/ G G | G B d d | c B A A/F/ |$ D F A A | G3/2 A/ G F | E D B, C | D c B A | G2 |]

